assets/svg/1F498.svg

<svg xmlns="http://www.w3.org/2000/svg" viewBox="0 0 64 64" enable-background="new 0 0 64 64"><path fill="#d13852" d="m59.11 20.914c-.226-3.531-.985-6.4-3.441-9.354-4.929-5.908-16.25-6.891-21.318-1.204-.883.836-1.718 1.844-2.556 3.048l-1.895 2.723-1.896-2.724c-.84-1.204-1.676-2.211-2.559-3.048-5.068-5.687-16.389-4.704-21.314 1.205-2.462 2.955-3.22 5.823-3.445 9.354-.321 10.502 7.298 18.909 8.239 20.14 5.172 6.067 10.813 11.806 16.543 17.09 1.037.908 1.933 1.662 2.828 2.41.539.44 1.069.885 1.604 1.322.534-.438 1.064-.882 1.6-1.322.899-.748 1.794-1.502 2.828-2.41 5.729-5.284 11.374-11.02 16.546-17.09.938-1.232 8.559-9.639 8.236-20.14"/><path fill="#236798" d="m61.62 4.392c-.513-.599-1.63-.482-2.513.26l-24.39 20.593c.469.268.846.715 1.032 1.264.136.4.204.815.265 1.236-.005-.003.006.039.014.105l24.91-21.03c.878-.742 1.186-1.832.682-2.429"/><g fill="#71a1b8"><path d="m62.67 6.96c-.357-.711-4.982 2.345-5.271 2.559l-13.355 11.306c-.284.214-1.013.035-.646.747.362.715.89 1.116 1.174.902l19.225-9.883c.296-.222-.76-4.915-1.127-5.631"/><path d="m42.471 18.963l13.383-11.271c.265-.246 4.051-4.296 3.405-4.771-.638-.478-5.094-2.306-5.356-2.057l-12.967 17.298c-.265.245.047.832.688 1.31s.586-.264.847-.509"/></g><path fill="#c43755" d="m35.648 26.15c-.974-1.598-1.229-3.421-.877-5.089-1.51 1.68-1.848 4.171-.633 6.17 1.297 2.13 3.908 2.978 6.219 2.169-1.877-.351-3.623-1.463-4.709-3.25"/><g fill="#236798"><path d="m19.02 47.25c.089-.186.176-.373.246-.557.33-.871.369-1.711-.105-2.302-.004-.005-.004-.009-.011-.012-.02-.038-.058-.065-.089-.101-.342-.332-2.096-.635-4.04.566 1.512-1.719 1.508-3.499 1.241-3.889-.027-.034-.05-.078-.085-.104-.008-.011-.008-.011-.012-.015-.502-.568-1.333-.67-2.247-.491-.199.036-.393.09-.595.151-1.4.429-3.03 1.451-4.137 2.851-.163.19-.326.394-.49.606-2.446 3.152-5.097 8.359-6.31 10.847-.319.587-.56 1.035-.704 1.299l-.023.021 0 0c0 0 0 .008-.004.012l.012-.016c0 0 .004 0 .007 0-.003 0-.007.004-.007.004l-.012.016c.004-.004.007-.004.012-.004l0 0 .023-.02c.288-.098.766-.266 1.392-.482 2.663-.777 8.238-2.516 11.76-4.396.237-.127.463-.252.677-.382 1.561-.854 2.848-2.288 3.505-3.602"/><path d="m20.268 38.553l-16.196 13.677c-.883.738-1.186 1.831-.681 2.43.505.597 1.629.482 2.507-.264l16.17-13.646c-.699-.639-1.108-1.536-1.803-2.197"/></g></svg>

<?xml version="1.0" encoding="utf-8"?>
<!-- Generator: Adobe Illustrator 16.0.0, SVG Export Plug-In . SVG Version: 6.00 Build 0)  -->
<!DOCTYPE svg PUBLIC "-//W3C//DTD SVG 1.1//EN" "http://www.w3.org/Graphics/SVG/1.1/DTD/svg11.dtd">
<svg version="1.1"
	 id="Layer_1" xmlns:dc="http://purl.org/dc/elements/1.1/" xmlns:cc="http://creativecommons.org/ns#" xmlns:rdf="http://www.w3.org/1999/02/22-rdf-syntax-ns#" xmlns:svg="http://www.w3.org/2000/svg" xmlns:sodipodi="http://sodipodi.sourceforge.net/DTD/sodipodi-0.dtd" xmlns:inkscape="http://www.inkscape.org/namespaces/inkscape" sodipodi:docname="1F498.svg" inkscape:version="0.48.5 r10040" inkscape:export-filename="D:\TESTINGEMOJI\SVGTEST\1F498.png" inkscape:export-xdpi="90" inkscape:export-ydpi="90"
	 xmlns="http://www.w3.org/2000/svg" xmlns:xlink="http://www.w3.org/1999/xlink" x="0px" y="0px" width="64px" height="64px"
	 viewBox="0 0 64 64" enable-background="new 0 0 64 64" xml:space="preserve">
<path fill="#D13852" d="M59.11,20.914c-0.226-3.531-0.985-6.4-3.441-9.354c-4.929-5.908-16.25-6.891-21.318-1.204
	c-0.883,0.836-1.718,1.844-2.556,3.048L29.9,16.127l-1.896-2.724c-0.84-1.204-1.676-2.211-2.559-3.048
	C20.377,4.668,9.056,5.651,4.131,11.56c-2.462,2.955-3.22,5.823-3.445,9.354C0.365,31.416,7.984,39.823,8.925,41.055
	c5.172,6.067,10.813,11.806,16.543,17.09c1.037,0.908,1.933,1.662,2.828,2.41c0.539,0.44,1.069,0.885,1.604,1.322
	c0.534-0.438,1.064-0.882,1.6-1.322c0.899-0.748,1.794-1.502,2.828-2.41c5.729-5.284,11.374-11.022,16.546-17.09
	C51.812,39.823,59.433,31.416,59.11,20.914z"/>
<g id="g3022">
	<g id="g3024">
		<path id="path3026" inkscape:connector-curvature="0" fill="#236798" d="M61.62,4.392c-0.513-0.599-1.63-0.482-2.513,0.26
			L34.717,25.245c0.469,0.268,0.846,0.715,1.032,1.264c0.136,0.4,0.204,0.815,0.265,1.236c-0.005-0.003,0.006,0.039,0.014,0.105
			l24.91-21.029C61.816,6.079,62.124,4.989,61.62,4.392z"/>
	</g>
	<g id="g3028">
		<g id="g3030">
			<path id="path3032" inkscape:connector-curvature="0" fill="#71A1B8" d="M62.668,6.96c-0.357-0.711-4.982,2.345-5.271,2.559
				L44.042,20.825c-0.284,0.214-1.013,0.035-0.646,0.747c0.362,0.715,0.89,1.116,1.174,0.902l19.225-9.883
				C64.091,12.369,63.035,7.676,62.668,6.96z"/>
		</g>
		<g id="g3034">
			<path id="path3036" inkscape:connector-curvature="0" fill="#71A1B8" d="M42.471,18.963L55.854,7.692
				c0.265-0.246,4.051-4.296,3.405-4.771c-0.638-0.478-5.094-2.306-5.356-2.057L40.936,18.162c-0.265,0.245,0.047,0.832,0.688,1.31
				S42.21,19.208,42.471,18.963z"/>
		</g>
	</g>
</g>
<g id="g3038">
	<path id="path3040" inkscape:connector-curvature="0" fill="#C43755" d="M35.648,26.148c-0.974-1.598-1.229-3.421-0.877-5.089
		c-1.51,1.68-1.848,4.171-0.633,6.17c1.297,2.13,3.908,2.978,6.219,2.169C38.48,29.047,36.734,27.935,35.648,26.148z"/>
</g>
<g id="g3042">
	<g id="g3044">
		<path id="path3046" inkscape:connector-curvature="0" fill="#236798" d="M19.016,47.25c0.089-0.186,0.176-0.373,0.246-0.557
			c0.33-0.871,0.369-1.711-0.105-2.302c-0.004-0.005-0.004-0.009-0.011-0.012c-0.02-0.038-0.058-0.065-0.089-0.101
			c-0.342-0.332-2.096-0.635-4.044,0.566c1.512-1.719,1.508-3.499,1.241-3.889c-0.027-0.034-0.05-0.078-0.085-0.104
			c-0.008-0.011-0.008-0.011-0.012-0.015c-0.502-0.568-1.333-0.67-2.247-0.491c-0.199,0.036-0.393,0.09-0.595,0.151
			c-1.4,0.429-3.032,1.451-4.137,2.851c-0.163,0.19-0.326,0.394-0.49,0.606c-2.446,3.152-5.097,8.359-6.31,10.847
			c-0.319,0.587-0.56,1.035-0.704,1.299l-0.023,0.021l0,0c0,0,0,0.008-0.004,0.012l0.012-0.016c0,0,0.004,0,0.007,0
			c-0.003,0-0.007,0.004-0.007,0.004l-0.012,0.016c0.004-0.004,0.007-0.004,0.012-0.004l0,0l0.023-0.02
			c0.288-0.098,0.766-0.266,1.392-0.482c2.663-0.777,8.238-2.516,11.76-4.396c0.237-0.127,0.463-0.252,0.677-0.382
			C17.072,49.998,18.359,48.564,19.016,47.25z"/>
	</g>
	<g id="g3048">
		<path id="path3050" inkscape:connector-curvature="0" fill="#236798" d="M20.268,38.553L4.072,52.23
			c-0.883,0.738-1.186,1.831-0.681,2.43c0.505,0.597,1.629,0.482,2.507-0.264L22.071,40.75
			C21.372,40.111,20.963,39.214,20.268,38.553z"/>
	</g>
</g>
<sodipodi:namedview  id="namedview3968" borderopacity="1" pagecolor="#ffffff" bordercolor="#666666" objecttolerance="10" gridtolerance="10" guidetolerance="10" showgrid="false" inkscape:zoom="3.6875" inkscape:cx="32" inkscape:cy="32" inkscape:pageopacity="0" inkscape:pageshadow="2" inkscape:window-width="792" inkscape:window-height="627" inkscape:window-x="528" inkscape:window-y="261" inkscape:window-maximized="0" inkscape:current-layer="Layer_1">
	</sodipodi:namedview>
</svg>
